symbolic/64x64/apps/antidote.svg

<svg xmlns="http://www.w3.org/2000/svg" width="64" height="64" version="1">
 <path style="opacity:0.2" d="M 40.210532,24.6 C 39.262668,19.055368 42.947374,7.9473676 42.947374,7.9473676 H 21.052638 c 0,0 3.681224,11.1073764 2.736842,16.6526324 C 21.738438,36.643384 6.2399872,56.578946 6.2399872,56.578946 5.373213,58.789468 6.9622988,61 9.273685,61 h 45.505517 c 2.311396,0 3.75601,-2.357888 3.033698,-4.421054 0,0 -15.542272,-19.928208 -17.602368,-31.978946 z"/>
 <path style="fill:#a9c9e0" d="M 40.210532,23.6 C 39.262668,18.055367 42.947374,6.9473676 42.947374,6.9473676 H 21.052638 c 0,0 3.681224,11.1073764 2.736842,16.6526324 C 21.738438,35.643384 6.2399872,55.578946 6.2399872,55.578946 5.373213,57.789468 6.9622988,60 9.273685,60 h 45.505517 c 2.311396,0 3.75601,-2.357888 3.033698,-4.421054 0,0 -15.542272,-19.928208 -17.602368,-31.978946 z"/>
 <path style="opacity:0.1" d="M 44.800004,11 H 19.199997 C 17.440004,11 16,9.650001 16,7.9999994 16,6.3500002 17.440004,5 19.199997,5 H 44.800004 C 46.559998,5 48,6.3500002 48,7.9999994 48,9.650001 46.559998,11 44.800004,11 Z"/>
 <path style="fill:#c0dce9" d="M 44.800004,10 H 19.199997 C 17.440004,10 16,8.6500006 16,6.9999994 16,5.3500002 17.440004,4 19.199997,4 H 44.800004 C 46.559998,4 48,5.3500002 48,6.9999994 48,8.6500006 46.559998,10 44.800004,10 Z"/>
 <path style="opacity:0.1" d="M 27.906646,29 C 25.8332,35.517074 22.05055,41.951516 18.52774,47.532336 15.861466,51.756236 14.96211,52.805058 13.359772,55 H 50.68399 C 49.076724,52.805014 48.176658,51.76015 45.505084,47.5408 41.970428,41.958334 38.175416,35.523226 36.0961,29 Z"/>
 <path style="fill:#ffda31" d="M 27.906646,28 C 25.8332,34.517074 22.05055,40.951516 18.52774,46.532336 15.861466,50.756236 14.96211,51.805058 13.359772,54 H 50.68399 C 49.076724,51.805014 48.176658,50.76015 45.505084,46.5408 41.970428,40.958334 38.175416,34.523226 36.0961,28 Z"/>
 <path style="opacity:0.1" d="m 31.143376,41.147738 c 0.0128,-1.02391 -2.933128,1.615106 -2.525724,-1.625594 0.211372,-1.681312 3.004386,-1.613628 3.126404,-3.303774 0.05264,-0.729328 -1.28466,-0.875928 -1.224512,-1.604676 0.07888,-0.955768 1.80796,-3.432596 1.80796,-3.432596 0,0 -0.575138,1.558282 -0.291528,2.443386 0.1877,0.585754 1.57075,1.554514 1.727162,2.149384 0.200122,0.761132 -1.33165,1.253786 -0.907986,1.917024 0.519708,0.8136 2.39995,-0.16564 2.80808,0.70927 0.719838,1.543128 -3.110016,6.052842 -2.22397,4.598766 0,0 -0.2658,-1.022502 1.918564,0.720978 1.929834,1.540322 3.84119,4.582224 1.69681,6.630592 -2.142364,2.04644 -6.184882,1.989644 -8.978872,0.91018 -1.187502,-0.458796 -2.297584,-3.872774 -2.03757,-4.940586 0.70812,-2.90803 5.077122,-2.90206 5.105182,-5.172354 z"/>
 <path style="fill:#61b620" d="m 31.143376,40.147738 c 0.0128,-1.02391 -2.933128,1.615106 -2.525724,-1.625594 0.211372,-1.681312 3.004386,-1.613628 3.126404,-3.303774 0.05264,-0.729328 -1.28466,-0.875928 -1.224512,-1.604676 0.07888,-0.955768 1.80796,-3.432596 1.80796,-3.432596 0,0 -0.575138,1.558282 -0.291528,2.443386 0.1877,0.585754 1.57075,1.554514 1.727162,2.149384 0.200122,0.761132 -1.33165,1.253786 -0.907986,1.917024 0.519708,0.8136 2.39995,-0.16564 2.80808,0.70927 0.719838,1.543128 -3.110016,6.052842 -2.22397,4.598766 0,0 -0.2658,-1.022502 1.918564,0.720978 1.929834,1.540322 3.84119,4.582224 1.69681,6.630592 -2.142364,2.04644 -6.184882,1.989644 -8.978872,0.91018 -1.187502,-0.458796 -2.297584,-3.872774 -2.03757,-4.940586 0.70812,-2.90803 5.077122,-2.90206 5.105182,-5.172354 z"/>
 <path style="opacity:0.2;fill:#ffffff" d="M 19.199219 4 C 17.439226 4 16 5.3500008 16 7 C 16 7.171465 16.019697 7.337595 16.052734 7.5 C 16.309173 6.0866365 17.621465 5 19.199219 5 L 44.800781 5 C 46.378536 5 47.690827 6.0866365 47.947266 7.5 C 47.980303 7.337595 48 7.171465 48 7 C 48 5.3500008 46.560775 4 44.800781 4 L 19.199219 4 z"/>
</svg>

<svg xmlns="http://www.w3.org/2000/svg" width="64" height="64" version="1"><path style="opacity:.2" d="M40.21 24.6c-.947-5.545 2.737-16.653 2.737-16.653H21.053s3.68 11.108 2.736 16.653C21.74 36.643 6.24 56.579 6.24 56.579 5.373 58.789 6.962 61 9.274 61h45.505c2.312 0 3.756-2.358 3.034-4.421 0 0-15.542-19.928-17.602-31.979z"/><path style="fill:#a9c9e0" d="M40.21 23.6c-.947-5.545 2.737-16.653 2.737-16.653H21.053s3.68 11.108 2.736 16.653C21.74 35.643 6.24 55.579 6.24 55.579 5.373 57.789 6.962 60 9.274 60h45.505c2.312 0 3.756-2.358 3.034-4.421 0 0-15.542-19.928-17.602-31.979z"/><path style="opacity:.1" d="M44.8 11H19.2C17.44 11 16 9.65 16 8s1.44-3 3.2-3h25.6C46.56 5 48 6.35 48 8s-1.44 3-3.2 3z"/><path style="fill:#c0dce9" d="M44.8 10H19.2C17.44 10 16 8.65 16 7s1.44-3 3.2-3h25.6C46.56 4 48 5.35 48 7s-1.44 3-3.2 3z"/><path style="opacity:.1" d="M27.907 29c-2.074 6.517-5.856 12.952-9.38 18.532-2.666 4.224-3.565 5.273-5.167 7.468h37.324c-1.607-2.195-2.507-3.24-5.179-7.46-3.535-5.582-7.33-12.017-9.409-18.54z"/><path style="fill:#ffda31" d="M27.907 28c-2.074 6.517-5.856 12.952-9.38 18.532-2.666 4.224-3.565 5.273-5.167 7.468h37.324c-1.607-2.195-2.507-3.24-5.179-7.46-3.535-5.582-7.33-12.017-9.409-18.54z"/><path style="opacity:.1" d="M31.143 41.148c.013-1.024-2.933 1.615-2.525-1.626.211-1.681 3.004-1.613 3.126-3.304.053-.729-1.285-.876-1.224-1.604.078-.956 1.808-3.433 1.808-3.433s-.576 1.558-.292 2.443c.188.586 1.57 1.555 1.727 2.15.2.761-1.332 1.254-.908 1.917.52.813 2.4-.166 2.808.71.72 1.542-3.11 6.052-2.224 4.598 0 0-.266-1.023 1.919.72 1.93 1.541 3.841 4.583 1.697 6.631-2.143 2.047-6.185 1.99-8.98.91-1.187-.458-2.297-3.872-2.037-4.94.708-2.908 5.077-2.902 5.105-5.172z"/><path style="fill:#61b620" d="M31.143 40.148c.013-1.024-2.933 1.615-2.525-1.626.211-1.681 3.004-1.613 3.126-3.304.053-.729-1.285-.876-1.224-1.604.078-.956 1.808-3.433 1.808-3.433s-.576 1.558-.292 2.443c.188.586 1.57 1.555 1.727 2.15.2.761-1.332 1.254-.908 1.917.52.813 2.4-.166 2.808.71.72 1.542-3.11 6.052-2.224 4.598 0 0-.266-1.023 1.919.72 1.93 1.541 3.841 4.583 1.697 6.631-2.143 2.047-6.185 1.99-8.98.91-1.187-.458-2.297-3.872-2.037-4.94.708-2.908 5.077-2.902 5.105-5.172z"/><path style="opacity:.2;fill:#fff" d="M19.2 4C17.44 4 16 5.35 16 7c0 .171.02.338.053.5.256-1.413 1.568-2.5 3.146-2.5h25.602c1.578 0 2.89 1.087 3.146 2.5.033-.162.053-.329.053-.5 0-1.65-1.44-3-3.2-3H19.2z"/></svg>
